Origami/32x32/apps/soapui.svg

<svg width="32" height="32" version="1" xmlns="http://www.w3.org/2000/svg">
 <rect transform="matrix(-.70710677 -.70710679 -.70710677 .70710679 0 0)" x="-33.85" y="-9.81" width="21.028" height="21.028" rx="2.103" ry="2.103" style="opacity:.2"/>
 <rect transform="matrix(-.70710678 -.70710678 -.70710678 .70710678 0 0)" x="-33.14" y="-10.51" width="21.028" height="21.028" rx="2.103" ry="2.103" style="fill:#66b744"/>
 <path d="M 16,6 C 14.251315,6 12.757515,6.209079 11.496094,6.6347656 L 7.5078125,10.623047 c -0.2239599,0.93493 -0.3254982,1.958515 -0.2421875,2.625 C 7.6988151,16.713565 11.333334,19.000001 16,19 c 3.333333,0 4.997643,1.713565 5.064453,2.248047 0.0334,0.267241 0.06233,1.429805 -0.552734,1.851562 C 19.896656,23.521366 18.233333,24 16,24 13.261905,24 9.9921875,22.263672 9.9921875,22.263672 8.9577484,21.648622 7.7075544,22.098833 7.2050781,23.074219 l 4.0996099,4.099609 C 12.642279,27.61869 14.261985,28 16,28 c 1.748685,0 3.242485,-0.209079 4.503906,-0.634766 l 3.988282,-3.988281 c 0.223959,-0.93493 0.325498,-1.958515 0.242187,-2.625 C 24.301185,17.286435 20.666666,14.999999 16,15 12.666667,15 11.101966,13.286436 11.035156,12.751953 11.001751,12.484712 10.972829,11.322148 11.587891,10.900391 12.202954,10.478634 13.766666,10 16,10 c 2.738095,0 6.007812,1.736328 6.007812,1.736328 1.03444,0.615051 2.284634,0.164839 2.78711,-0.810547 L 20.695312,6.8261719 C 19.357721,6.3813102 17.738015,6 16,6 Z" style="fill-rule:evenodd;opacity:.2"/>
 <path d="m16 5c-1.748685 0-3.242485 0.209079-4.503906 0.6347656l-3.9882815 3.9882813c-0.2239599 0.9349301-0.3254982 1.9585151-0.2421875 2.6250001 0.4331901 3.465518 4.067709 5.751954 8.734375 5.751953 3.333333 0 4.997643 1.713565 5.064453 2.248047 0.0334 0.267241 0.06233 1.429805-0.552734 1.851562-0.615063 0.421757-2.278386 0.900391-4.511719 0.900391-2.738095 0-6.0078125-1.736328-6.0078125-1.736328-1.0344391-0.61505-2.2846331-0.164839-2.7871094 0.810547l4.0996099 4.099609c1.337591 0.444862 2.957297 0.826172 4.695312 0.826172 1.748685 0 3.242485-0.209079 4.503906-0.634766l3.988282-3.988281c0.223959-0.93493 0.325498-1.958515 0.242187-2.625-0.43319-3.465518-4.067709-5.751954-8.734375-5.751953-3.333333 0-4.898034-1.713564-4.964844-2.248047-0.033405-0.267241-0.062327-1.429805 0.552735-1.8515624 0.615063-0.421757 2.178775-0.9003906 4.412109-0.9003906 2.738095 0 6.007812 1.736328 6.007812 1.736328 1.03444 0.615051 2.284634 0.164839 2.78711-0.8105468l-4.09961-4.0996093c-1.337591-0.4448617-2.957297-0.8261719-4.695312-0.8261719z" style="fill-rule:evenodd;fill:#ffffff"/>
 <path d="m16 2c-0.537518 0-1.074454 0.2053134-1.486328 0.6171875l-11.896484 11.896484c-0.5410933 0.541093-0.7185879 1.296419-0.5488281 1.986328 0.0886786-0.360393 0.2661732-0.703673 0.5488281-0.986328l11.896484-11.896484c0.823748-0.8237481 2.148908-0.8237481 2.972656 0l11.896484 11.896484c0.282655 0.282655 0.46015 0.625935 0.548829 0.986328 0.169759-0.689909-0.007735-1.445235-0.548829-1.986328l-11.896484-11.896484c-0.411874-0.4118741-0.94881-0.6171875-1.486328-0.6171875z" style="fill:#ffffff;opacity:.2"/>
</svg>

<svg xmlns="http://www.w3.org/2000/svg" width="32" height="32" version="1">
 <rect style="opacity:0.2" width="21.028" height="21.028" x="-33.85" y="-9.81" rx="2.103" ry="2.103" transform="matrix(-0.70710677,-0.70710679,-0.70710677,0.70710679,0,0)"/>
 <rect style="fill:#66b744" width="21.028" height="21.028" x="-33.14" y="-10.51" rx="2.103" ry="2.103" transform="matrix(-0.70710678,-0.70710678,-0.70710678,0.70710678,0,0)"/>
 <path style="opacity:0.2;fill-rule:evenodd" d="M 16,6 C 14.251315,6 12.757515,6.209079 11.496094,6.6347656 L 7.5078125,10.623047 c -0.2239599,0.93493 -0.3254982,1.958515 -0.2421875,2.625 C 7.6988151,16.713565 11.333334,19.000001 16,19 c 3.333333,0 4.997643,1.713565 5.064453,2.248047 0.0334,0.267241 0.06233,1.429805 -0.552734,1.851562 C 19.896656,23.521366 18.233333,24 16,24 13.261905,24 9.9921875,22.263672 9.9921875,22.263672 8.9577484,21.648622 7.7075544,22.098833 7.2050781,23.074219 l 4.0996099,4.099609 C 12.642279,27.61869 14.261985,28 16,28 c 1.748685,0 3.242485,-0.209079 4.503906,-0.634766 l 3.988282,-3.988281 c 0.223959,-0.93493 0.325498,-1.958515 0.242187,-2.625 C 24.301185,17.286435 20.666666,14.999999 16,15 12.666667,15 11.101966,13.286436 11.035156,12.751953 11.001751,12.484712 10.972829,11.322148 11.587891,10.900391 12.202954,10.478634 13.766666,10 16,10 c 2.738095,0 6.007812,1.736328 6.007812,1.736328 1.03444,0.615051 2.284634,0.164839 2.78711,-0.810547 L 20.695312,6.8261719 C 19.357721,6.3813102 17.738015,6 16,6 Z"/>
 <path style="fill:#ffffff;fill-rule:evenodd" d="M 16 5 C 14.251315 5 12.757515 5.209079 11.496094 5.6347656 L 7.5078125 9.6230469 C 7.2838526 10.557977 7.1823143 11.581562 7.265625 12.248047 C 7.6988151 15.713565 11.333334 18.000001 16 18 C 19.333333 18 20.997643 19.713565 21.064453 20.248047 C 21.097853 20.515288 21.126783 21.677852 20.511719 22.099609 C 19.896656 22.521366 18.233333 23 16 23 C 13.261905 23 9.9921875 21.263672 9.9921875 21.263672 C 8.9577484 20.648622 7.7075544 21.098833 7.2050781 22.074219 L 11.304688 26.173828 C 12.642279 26.61869 14.261985 27 16 27 C 17.748685 27 19.242485 26.790921 20.503906 26.365234 L 24.492188 22.376953 C 24.716147 21.442023 24.817686 20.418438 24.734375 19.751953 C 24.301185 16.286435 20.666666 13.999999 16 14 C 12.666667 14 11.101966 12.286436 11.035156 11.751953 C 11.001751 11.484712 10.972829 10.322148 11.587891 9.9003906 C 12.202954 9.4786336 13.766666 9 16 9 C 18.738095 9 22.007812 10.736328 22.007812 10.736328 C 23.042252 11.351379 24.292446 10.901167 24.794922 9.9257812 L 20.695312 5.8261719 C 19.357721 5.3813102 17.738015 5 16 5 z"/>
 <path style="fill:#ffffff;opacity:0.2" d="M 16 2 C 15.462482 2 14.925546 2.2053134 14.513672 2.6171875 L 2.6171875 14.513672 C 2.0760942 15.054765 1.8985996 15.810091 2.0683594 16.5 C 2.157038 16.139607 2.3345326 15.796327 2.6171875 15.513672 L 14.513672 3.6171875 C 15.33742 2.7934394 16.66258 2.7934394 17.486328 3.6171875 L 29.382812 15.513672 C 29.665467 15.796327 29.842962 16.139607 29.931641 16.5 C 30.1014 15.810091 29.923906 15.054765 29.382812 14.513672 L 17.486328 2.6171875 C 17.074454 2.2053134 16.537518 2 16 2 z"/>
</svg>
